X: 7
T: Polska efter Gustaf Wallin 
T: (SvL Västmanland nr. 7)
B: Svenska Låtar Västmanland nr 7
Z: Nils L
R: Polska
O: Västmanland
M: 3/4
L: 1/16
K: Dm
(A=B)(^cd) (e^f)(gb) a4 | fde^c A2(BA) F2(EF) | (A=B)(^cd) (eg)(ef) d4 | (dc)(Ac) (cB)(GB) A2A2 |
(AF)(DF) (FE)(^CE) D2D2 | A2d2 ^cdec A2A2 | d^cde fefg a2fd | ^cdec d4 z4 ::
A2(^ce) a2(ed) cdef | gfdf e4 ^cdef | gfdf e2e2 e=cAc | cBGB A2A2 AFDF |
FE^CE D2D2 A2d2 | ^cdec A2A2 dcde | fefg a2fd ^cdec | ^c2d2 d4 z4 :|

